X:1
T:The Juice of the Barley
M:6/8
L:1/8
K:A
 E/2D/2| CB,C A,CE| DFA A2 E/2D/2| CB,C| A,C E/2E/2| DCD B,2 E/2D/2|\
 CB,C A,CE| DFA A2 A/2B/2| cBA FEC| DCD| B,ED| CB,C A,CE| A3 E2 E/2D/2|\
 CCC DCB,| A,3- A,||
